svgs/sharp-duotone-light/arrow-trend-up.svg

<svg xmlns="http://www.w3.org/2000/svg" viewBox="0 0 576 512"><!--! Font Awesome Pro 7.1.0 by @fontawesome - https://fontawesome.com License - https://fontawesome.com/license (Commercial License) Copyright 2025 Fonticons, Inc. --><path opacity=".4" fill="currentColor" d="M4.8 388.6c7.5 7.6 15 15.2 22.6 22.7l164.7-164.7 116.7 116.7 11.3 11.3 11.3-11.3 212.7-212.7 0 153.4 32 0 0 208-571.2 0 0-123.4z"/><path fill="currentColor" d="M368 96l208 0 0 208-32 0 0-153.4-212.7 212.7-11.3 11.3-11.3-11.3-116.7-116.7-164.7 164.7-22.6-22.6 176-176 11.3-11.3 11.3 11.3 116.7 116.7 201.4-201.4-153.4 0 0-32z"/></svg>

<svg xmlns="http://www.w3.org/2000/svg" viewBox="0 0 576 512"><!--! Font Awesome Pro 6.7.2 by @fontawesome - https://fontawesome.com License - https://fontawesome.com/license (Commercial License) Copyright 2024 Fonticons, Inc. --><defs><style>.fa-secondary{opacity:.4}</style></defs><path class="fa-secondary" d="M4.8 388.6c7.5 7.6 15 15.2 22.6 22.7L192 246.6 308.7 363.3 320 374.6l11.3-11.3L544 150.6 544 288l0 16 32 0 0 208L4.8 512l0-123.4z"/><path class="fa-primary" d="M368 96l16 0 176 0 16 0 0 16 0 176 0 16-32 0 0-16 0-137.4L331.3 363.3 320 374.6l-11.3-11.3L192 246.6 27.3 411.3 4.7 388.7l176-176L192 201.4l11.3 11.3L320 329.4 521.4 128 384 128l-16 0 0-32z"/></svg>
